tools/download-figma-icons/icons/outlined-medium/solar-panel.svg

<svg width="24" height="24" viewBox="0 0 24 24" fill="none" xmlns="http://www.w3.org/2000/svg">
<path fill-rule="evenodd" clip-rule="evenodd" d="M12.7499 21V15.7552H20.0684L20.8754 21H12.7499ZM3.93139 15.7552H11.2499V21H3.12439L3.93139 15.7552ZM5.89342 3H11.2499V8.24475H5.08642L5.89342 3ZM18.9134 8.24475H12.7499V3H18.1064L18.9134 8.24475ZM11.2499 14.2553H4.16243L4.85618 9.74476H11.2499V14.2553ZM12.7499 9.74476H19.1436L19.8374 14.2553H12.7499V9.74476ZM19.4909 2.136C19.4347 1.77 19.1197 1.5 18.7499 1.5H5.24992C4.88017 1.5 4.56517 1.77 4.50892 2.136L1.50892 21.636C1.47517 21.8527 1.53817 22.0725 1.68067 22.2382C1.82317 22.4047 2.03092 22.5 2.24992 22.5H21.7499C21.9689 22.5 22.1767 22.4047 22.3192 22.2382C22.4617 22.0725 22.5247 21.8527 22.4909 21.636L19.4909 2.136Z" fill="black"/>
</svg>

<svg xmlns="http://www.w3.org/2000/svg" width="24" height="24" fill="none" viewBox="0 0 24 24"><path fill="currentColor" fill-rule="evenodd" d="M12.75 21v-5.245h7.318L20.875 21zm-8.82-5.245h7.319V21H3.124zM5.893 3h5.357v5.245H5.086zm13.02 5.245H12.75V3h5.356zm-7.663 6.01H4.162l.694-4.51h6.394zm1.5-4.51h6.394l.693 4.51H12.75zm6.74-7.609a.75.75 0 0 0-.74-.636H5.25a.75.75 0 0 0-.741.636l-3 19.5a.747.747 0 0 0 .74.864h19.5a.75.75 0 0 0 .742-.864z" clip-rule="evenodd"/></svg>
